X: 41000
T: Trip To Fanore, The
R: reel
M: 4/4
K: Gmajor
|:GFGB dB(3BBB|dege dBGB|cBAG (3FFF DE|FGAB cBAG|
~E3G EB,EF|GAGF EC(3CCC|EGED EFGA|1 (3Bcd ed BcBA:|2 (3Bcd ed Bdef||
|:gfga bg(3ggg|dgga bgag|fdAG FDDE|FGAB cBcd|
e2eg eBef|gagf ec(3ccc|BdAG EFGA|1 (3Bcd ed Bdef:|2 (3Bcd ed BcBA||

